resources/icons/20px/unlink.svg

<svg width="20" height="20" viewBox="0 0 20 20" fill="none" xmlns="http://www.w3.org/2000/svg">
<path fill-rule="evenodd" clip-rule="evenodd" d="M16 0C18.21 0 20 1.79 20 4C20 5.11 19.54 6.09 18.82 6.82L18.83 6.83L15.83 9.83L15.82 9.82C15.2606 10.3717 14.5545 10.7707 13.7556 10.9271L12.8242 9.99579L17.41 5.41C17.78 5.05 18 4.55 18 4C18 2.9 17.1 2 16 2C15.45 2 14.95 2.22 14.59 2.58L9.99921 7.17079L9.07285 6.24443C9.22927 5.44549 9.62831 4.73936 10.18 4.18L10.17 4.17L13.17 1.17L13.18 1.18C13.91 0.46 14.89 0 16 0ZM10.7042 7.87579L12.1242 9.29579L14.71 6.71C14.89 6.53 15 6.28 15 6C15 5.45 14.55 5 14 5C13.72 5 13.47 5.11 13.29 5.29L10.7042 7.87579ZM8.58289 9.99711L5.29 13.29C5.11 13.47 5 13.72 5 14C5 14.55 5.45 15 6 15C6.28 15 6.53 14.89 6.71 14.71L10.0029 11.4171L10.7079 12.1221L6.41 16.42L5.41 17.42C5.05 17.78 4.55 18 4 18C2.9 18 2 17.1 2 16C2 15.45 2.22 14.95 2.59 14.59L7.88289 9.29711L8.58289 9.99711ZM7.64858 9.0628L3.29289 4.70711C2.90237 4.31658 2.90237 3.68342 3.29289 3.29289C3.68342 2.90237 4.31658 2.90237 4.70711 3.29289L16.7071 15.2929C17.0976 15.6834 17.0976 16.3166 16.7071 16.7071C16.3166 17.0976 15.6834 17.0976 15.2929 16.7071L10.9366 12.3509C10.9764 12.5604 11 12.7743 11 13C11 14.11 10.54 15.09 9.82 15.82L9.83 15.83L6.83 18.83L6.82 18.82C6.09 19.54 5.11 20 4 20C1.79 20 0 18.21 0 16C0 14.89 0.46 13.91 1.18 13.18L1.17 13.17L4.17 10.17L4.18 10.18C4.91 9.46 5.89 9 7 9C7.22464 9 7.43759 9.02336 7.64858 9.0628Z" fill="#5F6B7C"/>
</svg>

<svg xmlns="http://www.w3.org/2000/svg" viewBox="0 0 20 20">
  <path d="M16 0c2.21 0 4 1.79 4 4 0 1.11-.46 2.09-1.18 2.82l.01.01-3 3-.01-.01a4.05 4.05 0 0 1-2.064 1.107l-.932-.931L17.41 5.41c.37-.36.59-.86.59-1.41 0-1.1-.9-2-2-2-.55 0-1.05.22-1.41.58L10 7.17l-.927-.926A4.05 4.05 0 0 1 10.18 4.18l-.01-.01 3-3 .01.01C13.91.46 14.89 0 16 0m-5.296 7.876 1.42 1.42L14.71 6.71a1.003 1.003 0 0 0-1.42-1.42zM8.583 9.997 5.29 13.29a1.003 1.003 0 0 0 1.42 1.42l3.293-3.293.705.705L6.41 16.42l-1 1c-.36.36-.86.58-1.41.58-1.1 0-2-.9-2-2 0-.55.22-1.05.59-1.41l5.293-5.293zm-.934-.934L3.293 4.707a1 1 0 0 1 1.414-1.414l12 12a1 1 0 0 1-1.414 1.414l-4.356-4.356c.04.21.063.423.063.649 0 1.11-.46 2.09-1.18 2.82l.01.01-3 3-.01-.01C6.09 19.54 5.11 20 4 20c-2.21 0-4-1.79-4-4 0-1.11.46-2.09 1.18-2.82l-.01-.01 3-3 .01.01C4.91 9.46 5.89 9 7 9c.225 0 .438.023.649.063"/>
</svg>
